X:1
T:Deltarune: Don't Forget (B major)
C:Toby Fox
Z:Ross Kirsling, Arrangement: Laura Shigihara
V:T clef=treble+8
M:4/4
L:1/8
Q:1/4=77
K:B
z4 d2 e2 | ffff f2 Bd | cccc c2 dc | BBBB B2 ab | a3 g d4 |
z4 d2 e2 | ffff f2 Bd | cccc c2 d3/2c/ | B3 F decB |
z B-B6- | B4 z2 z d/2c/2 | B3 F de c3/2B/2 | B8 |]
